!!!COM: Carl Loewe				
!!!CNT: Deutscher				
!!!TXO: Deutsch				
!!!OTL: "Die Reigerbaize"				
!!!OPS: Op. 106				 			
!!!ENC: O'Neal Douglas 					
!!!YOR: Twelve Songs and Ballads Vol. 1 and 2				
!!!YOR: New York:Schirmer, 1903					
!!!ODT: 1843/					
!!NB: Vocal melody and text encoded.
**kern	**text
*staff1	*staff1
*clefG2	*
*k[b-]	*
*M4/8	*
*MM115	*
=0	=0
4.r	.
{8c	{Als
=1	=1
8f	Lenz
8g	die
8d	Er-
8e	-de
=2	=2
4f	wie-
8g	-der
8a	mit
=3	=3
8b-	er-
8a	-stem
8b-	Kuss
8cc	um-
=4	=4
8a}	-schloss,}
8r	.
4r	.
=5	=5
4r	.
8r	.
{8c	{da
=6	=6
8f	ritt
8g	aus
8d	Bru2g-
8e	-ge's
=7	=7
4f	Tho-
8g	-ren
8a	ein
=8	=8
8b-	bun-
8a	-ter
8b-	Ja2-
8cc	-ger-
=9	=9
8a}	-tross,}
8r	.
4r	.
=10	=10
4r	.
8r	.
{8cc	{viel
=11	=11
16.g	schumu-
32a	-cke
4b-	Fal-
8cc	-ko-
=12	=12
(16.f	-nie-
32g)	|
8a	-re
8r	.
8cc	sah
=13	=13
16.cc	man
32e	zu
([8g	Ros-
24g]	|
24f	|
24e	|
24f	|
24d)	|
24g	-se
=14	=14
4c}	zieh'n,}
8r	.
{8c	{und
=15	=15
8f	an
8g	des
8d	Gat-
8e	-ten
=16	=16
4f	Sei-
8g	-te
8a	die
=17	=17
(ccq	|
8b-)	scho2-
8a	-ne
8g	Her-
8cc	-zo-
=18	=18
8f}	-gin.}
8r	.
4r	.
=19	=19
2r	.
=20	=20
2r	.
=21	=21
2r	.
=22	=22
4r	.
8r	.
{8c	{Am
=23	=23
8f	Arm
8a	sass
8dd	ihr
8bn	ein
=24	=24
8cc	Fal-
8c	-ke
8r	.
8cc	Ob
=25	=25
16.cc	sei-
32e	-nem
([8g	wei-
24g]	|
24a	|
24g	|
24f	|
24d)	-ssen
24e	Ge-
=26	=26
8c}	-wand}
8r	.
8r	.
{8c	{ward
=27	=27
8f	er
8a	bei
8dd	Ho-
8bn	-fe
=28	=28
8cc	scherz-
8c	-weis
8r	.
8c	der
=29	=29
24c	Do-
24e	-mi-
24g	-ni-
4cc	-ka-
(24d	-ner
24e)	|
24d	ge-
=30	=30
8c}	-nannt;}
8r	.
4r	.
=31	=31
2r	.
=32	=32
4r	.
8r	.
{8cc	{ein
=33	=33
8dd	schwar
8cc	zes
8b-	Ka2pp
16.a	chen
32a	be-
=34	=34
8b-	-deckt'
8g	ihn,
8r	.
(16a	er
16b-)	|
=35	=35
8cc	trug
8b-	ein
8a	sil-
16.g	-bern
32g	Col-
=36	=36
4a}	-lar,}
8r	.
{8f	{dar-
=37	=37
8g	-auf
8a	das
8b-	Wo2rt-
8cc	-lein
=38	=38
8dd	"Auf-
8dd	-wa2rts!"
8r	.
8Bn	in
=39	=39
(24c	Gold
24f)	|
24a	zu
4cc	le-
(24g	-sen
24a	|
24g)	|
=40	=40
4f}	war}
4r	.
=41	=41
2r	.
=42	=42
2r	.
=43	=43
2r	.
=44	=44
2r	.
=45	=45
4r	.
8r	.
{8dd	{Weit
=46	=46
8cc	dehnt
8b-	sich
8a	ei-
8g	-ne
=47	=47
8a	Hai-
8a	-de,
4r	.
=48	=48
4r	.
8r	.
8b-	da
=49	=49
8a	gru2nt
8g	kein
8f	schat-
16e	-ti-
16e	-ger
=50	=50
4d}	Baum,}
4r	.
=51	=51
4r	.
8r	.
{8d	{nur
=52	=52
8.e	Dorn-
16e	-gest
8e	tru2p-
8e	-pe
=53	=53
8f	wuch-
8d	-ert
8r	.
8d	zer-
=54	=54
8.e	-streut
16e	im
8e	o2-
8e	-den
=55	=55
4f}	Raum;}
4r	.
=56	=56
2r	.
=57	=57
4r	.
8r	.
{8d	{zur
=58	=58
8e-	Lin-
8d	-ken
8e-	lag
8f	ein
=59	=59
8d	Wei-
8B-}	-her,}
4r	.
=60	=60
2r	.
=61	=61
4r	.
8r	.
{8d	{des
=62	=62
8e-	Rei-
8d	-ger-
8e-	-vol-
8f	-kes
=63	=63
4d}	Bad,}
4r	.
=64	=64
2r	.
=65	=65
4r	.
8r	.
{8c#	{dort
=66	=66
8d	wa2scht
8e	es
8f#	sein
8g#	Ge-
=67	=67
8a	-fie-
8A}	-der}
4r	.
=68	=68
2r	.
=69	=69
4r	.
8r	.
{8c#	{sich
=70	=70
8d	sel-
8e	-ber
8f#	zum
8g#	Ver-
=71	=71
4a}	-rath.}
4r	.
=72	=72
4r	.
8r	.
{8a	{Jetzt
=73	=73
8.g	rauscht
16g	es
8f	in
8f	den
=74	=74
8e	Wel-
8e	-len,
8r	.
8cc#	es
=75	=75
8ee	kreischt
16ee	aus
16ee	dem
8dd	Schilf
8dd	her-
=76	=76
4cc#}	-vor,}
8r	.
{8a	{und
=77	=77
8b-	rechts-
8b-	-und
8.dd	links-
16b-	-hin
=78	=78
8a	flie-
8a	-gen
8r	.
8a	ver-
=79	=79
8b-	-scheuch-
8b-	-te
8dd	Rei-
16cc	-ger
16b-	em-
=80	=80
4a}	-por,}
8r	.
{8d	{vom
=81	=81
(16d	Arm
16e-)	|
(16f	der
16g)	|
(16a-	Ja2-
16b-)	|
(16cc	-ger
16dd)	|
=82	=82
8ee-	stei-
8e-	-gen
8r	.
8e-	die
=83	=83
(16d	mu-
16e-)	|
16f	-thi-
16g	-gen
(16a-	Fal-
16b-)	|
16cc	-ken
16dd	hin-
=84	=84
4ee-}	-an;}
8r	.
{8dd-	{gleich
=85	=85
(16cc	Wu2n-
16dd-)	|
16cc	-schen
16dd-	der
(16cc	Men-
16b-)	|
(16a-	-schen-
16g)	|
=86	=86
8a-	-see-
8f	-le,
8r	.
8e-	so
=87	=87
(16d	flo-
16e-)	|
16f	-gen
16g	sie
(16a-	him-
16b-)	|
(16cc	-mel-
16dd)	|
=88	=88
*k[b-e-a-]	*
*M9/8	*
4ee-}	-an.}
8r	.
4r	.
8r	.
4r	.
8r	.
=89	=89
4.r	.
4.r	.
4.r	.
=90	=90
4.r	.
4.r	.
4.r	.
=91	=91
4r	.
8r	.
4r	.
8r	.
4r	.
{8g	{Und
=92	=92
4cc	je-
8dd	-des
4cc	Ja2-
8g	-gers
8.e-	Au-
16e-	-ge
8g	will
=93	=93
4cc	mit
8dd	den
4cc	Fal-
8g	-ken
4e-}	zieh'n;}
{8g	{wie
=94	=94
4cc	die
8dd	in
4cc	Lu2f-
8g	-ten
8.en	schie-
16e	-ssen
8g	zur
=95	=95
8.cc	Rech-
16cc	-ten
8dd	und
4cc	Lin-
8g	-ken
4en}	hin,}
{8g	{so
=96	=96
4cc	spren-
8dd	-gen
4cc	flink
8a-	da
8.f	un-
16f	-ten
8an	die
=97	=97
4cc	Rei-
8dd	-ter
4cc	kreuz
8a-	und
4f	quer,
8a-	es
=98	=98
4dd	dro2hnt
8ee-	die
8.dd	be-
16dd	-ben-
8an	-de
8.f#	Hai-
16f#	-de,
8a	Staub
=99	=99
4dd	wir-
8ee-	-belt
4dd	dru2-
8an	-ber
4f#}	her.}
{8dd	{Doch
=100	=100
4ee-	sieh',
8ee-	mit
8dd	flat-
8cc	-tern
8b-	der
8an	Ma2h-
8g	-ne
8f#	la2uft
=101	=101
4g	dort
8an	ein
8b-	le-
8b-	-di-
8cc	-ges
4dd	Ross,
8g	wie's
=102	=102
4dd-	schnaubt,
8cc	wie
(8b-	scheu
8a-)	|
8g	es
8g	bli-
8f	-cket
8en	und
=103	=103
8f	sprengt
8f	durch
8g	den
4a-	wir-
8b-	-ren
4cc}	Tross.}
{8cc	{Halt
=104	=104
4dd-	an,
8b-	er-
4dd-	-fasst
8b-	den
8dd-	Zu2-
8cc	-gel!
8bn	wo
=105	=105
4cc	sank
8en	der
4f	Rei-
8a-	-ter
4cc	hin?
8cc	O
=106	=106
4bn	Gott!
8b	dort
4b	liegt
8b	im
8ff	Blu-
8b	-te
8b	die
=107	=107
*M6/8	*
(8cc	ed-
8f#)	|
8g	-le
4a-	Her-
8Bn	-zo-
=108	=108
4c}	-gin!}
8r	.
4r	.
8r	.
=109	=109
2.r	.
=110	=110
4r	.
8r	.
4r	.
{8cc	{Es
=111	=111
*k[b-e-a-d-]	*
*met(C)	*
*M4/4	*
4.cc	lehnt
8cc	ihr
(4cc	blei-
8b-)	|
8a-	-ches
=112	=112
(8.a-	Ant-
16g)	|
4g	-litz
4r	.
[4g	sanft
=113	=113
4g]	|
8g	in
8g	des
(gq	|
b-q	|
4.a-)	Gat-
8en	-ten
=114	=114
(4en	Schoss,
4f)}	|}
4r	.
{4cc	{so
=115	=115
4.cc	blass
8cc	wie
(8ff	A-
8ee-)	|
(8dd-	-bend-
8cc)	|
=116	=116
(8cc	-wol-
16ee-	|
16dd-)	|
4dd-	-ken,
4r	.
4b-	wenn
=117	=117
4.b-	Spa2t-
8b-	-roth
(8ee-	la2ngst
8dd-)	|
(8cc	ver-
8b-)	|
=118	=118
(4bn	-floss;
4cc)}	|}
4r	.
8r	.
{8cc	{ach,
=119	=119
4.cc	wie
8cc	in
4.cc	ro-
8b-	-ther
=120	=120
(4.e-	Stro2-
8f)	|
4e-	-mung
8r	.
8cc	die
=121	=121
4.cc	Le-
8cc	-bens-
4.cc	-quel-
8b-	-le
=122	=122
2e-}	flieht!}
4r	.
{4e-	{wie
=123	=123
(4cc	reich
8g)	|
8a-	die
(4dd-	blut'-
8an)	|
8b-	-ge
=124	=124
[2ee-	Ro-
8ee-]	|
8ddn	|
(12dd-	-se
12f)	|
12b-	ihr
=125	=125
4.e-	aus
8a-	dem
(8a-	Her-
b-q	|
a-q	|
8g	|
8.cc)	|
16b-	-zen
=126	=126
2a-}	blu2ht!}
2r	.
=127	=127
1r	.
=128	=128
1r	.
=129	=129
1r	.
=130	=130
2r	.
4r	.
{4cc	{Ein
=131	=131
4.cc	Kin-
8cc	-der-
4cc	-paar
8b-	an
8a-	der
=132	=132
(8.a-	Lei-
16g)	|
4g	-che,
4r	.
4g	das
=133	=133
4g	wei-
8g	-nen-
8g	-den
(gq	|
b-q	|
4.a-)	En-
8en	-geln
=134	=134
(4en	glich,
4f)}	|}
4r	.
{4cc	{beugt
=135	=135
4.cc	za2rt-
8cc	-lich
(8ff	u2-
8ee-)	|
8dd-	-ber
8cc	die
=136	=136
(8cc	blei-
16ee-	|
16dd-)	|
4dd-	-che,
4r	.
4b-	ent-
=137	=137
4.b-	-seel-
8b-	-te
(8ee-	Mut-
8dd-)	|
dd-q	|
(8cc	-ter
8b-)	|
=138	=138
(4bn	sich;
4cc)}	|}
4r	.
8r	.
{8cc	{so
=139	=139
4cc	nei-
8cc	-gen
8cc	zwei
4.cc	Ro-
8b-	-sen-
=140	=140
(4.e-	-knos-
gq	|
8f)	|
4e-	-pen,
8r	.
8cc	an
=141	=141
4.cc	ei-
8cc	-nem
4.cc	Stamm
8b-	er-
=142	=142
2e-}	-glu2ht,}
4r	.
{4e-	{sich
=143	=143
(8e-	u2-
8cc)	|
8g	-ber
8a-	die
(8e-	Mut-
8dd-)	|
(8an	-ter-
8b-)	|
=144	=144
(4e-	-ro-
[4ee-	|
8ee-]	|
8ddn)	|
(12dd-	-se,
12f)	|
12b-	die
=145	=145
(4e-	stur
8a-)	|
8a-	ment-
(8a-	-bla2tt
8g)	|
(8f	ert
8g)	ver-
=146	=146
2a-}	-blu2ht.}
2r	.
=147	=147
1r	.
=148	=148
2r	.
4r	.
8r	.
{8cc	{Mit
=149	=149
*M2/4	*
8dd-	trau-
16.cc	-rig
32cc	ge-
8b-	-senk-
8a-	-tem
=150	=150
8b-	Ko2pf-
8g	-chen
8r	.
(16a-	im
16b-)	|
=151	=151
8cc	blut-
8b-	-ge-
8a-	-tu2nch-
8g	-ten
=152	=152
4a-	Gras,
8r	.
8a-	als
=153	=153
(ccq	|
8b-)	Tro2-
8a-	-ster
8g	ihr
8f	zur
=154	=154
8e-	Sei-
8d-	-te
8r	.
8Bn	der
=155	=155
24c	Do-
24f	-mi-
24a-	-ni-
4cc	-ka-
(24g	-ner
24a-	|
24g)	|
=156	=156
4f}	sass;}
4r	.
=157	=157
2r	.
=158	=158
4r	.
8r	.
{8cc	{wollt
=159	=159
8dd-	ihr
8cc	sein
8b-	Spru2ch
8a-	lein
=160	=160
8b-	wiss
8a-	en?
8r	.
(16a-	sie
16b-)	|
=161	=161
8cc	selbst
8b-	hat
8a-	ihn's
8g	ge-
=162	=162
4a-}	-lehrt.}
4r	.
=163	=163
{8cc	{"Auf
16cc	wa2rts!"
32r	.
32cc	so
8ff	heisst's
16r	.
16cc	und
=164	=164
8ee-	gla2n-
8dd-	-zet
8r	.
8Bn	in
=165	=165
(24c	Gold
24f)	|
24a-	schrift
4cc	un-
(24g	-ver-
24a-	|
24g)	|
=166	=166
4f}	-sehrt.}
4r	.
=167	=167
2r	.
=168	=168
2r	.
=169	=169
4r	.
8r	.
==	==
*-	*-
